assets/wordpress.svg

<svg width="194" height="44" viewBox="0 0 194 44" fill="none" xmlns="http://www.w3.org/2000/svg">
<path d="M112.516 17.1961H104.879V18.0002C107.268 18.0002 107.652 18.5082 107.652 21.5149V26.9352C107.652 29.9415 107.268 30.492 104.879 30.492C103.045 30.2382 101.808 29.2638 100.101 27.4007L98.1386 25.2839C100.783 24.8175 102.191 23.1666 102.191 21.3032C102.191 18.9749 100.187 17.1965 96.432 17.1965H88.9236V18.0002C91.3122 18.0002 91.6965 18.5082 91.6965 21.5149V26.9352C91.6965 29.9415 91.3122 30.492 88.9236 30.492V31.2964H97.413V30.4916C95.0244 30.4916 94.6405 29.9415 94.6405 26.9352V25.411H95.3654L100.101 31.2964H112.516C118.617 31.2964 121.262 28.0788 121.262 24.2248C121.262 20.3716 118.617 17.1961 112.516 17.1961ZM94.6409 24.0977V18.4665H96.3896C98.3091 18.4665 99.1628 19.779 99.1628 21.3035C99.1628 22.7856 98.3091 24.0977 96.3896 24.0977H94.6409ZM112.644 29.984H112.345C110.81 29.984 110.597 29.603 110.597 27.655V18.4665H112.644C117.081 18.4665 117.891 21.6841 117.891 24.1827C117.891 26.7656 117.081 29.984 112.644 29.984ZM65.1616 25.6652L68.1054 17.0265C68.959 14.5283 68.5748 13.8089 65.8444 13.8089V12.9616H73.8647V13.8089C71.1772 13.8089 70.5376 14.4437 69.4709 17.535L64.6069 32.0162H64.0526L59.7005 18.7621L55.2635 32.0162H54.7088L49.9739 17.535C48.9501 14.4437 48.2673 13.8089 45.7927 13.8089V12.9616H55.2638V13.8089C52.7468 13.8089 52.0636 14.4016 52.9601 17.0265L55.8182 25.6648L60.1271 12.9616H60.938L65.1616 25.6652ZM79.6662 31.8466C74.9734 31.8466 71.134 28.4169 71.134 24.2245C71.134 20.0753 74.9738 16.6448 79.6662 16.6448C84.3593 16.6448 88.1984 20.0753 88.1984 24.2245C88.1984 28.4169 84.3593 31.8466 79.6662 31.8466ZM79.6662 17.9584C75.7415 17.9584 74.3763 21.4724 74.3763 24.2248C74.3763 27.0202 75.7415 30.492 79.6662 30.492C83.6341 30.492 84.9993 27.0202 84.9993 24.2248C84.9993 21.4724 83.6341 17.9584 79.6662 17.9584Z" fill="white" fill-opacity="0.2"/>
<path d="M131.799 30.4495V31.2964H122.029V30.4495C124.888 30.4495 125.4 29.7297 125.4 25.4948V18.7207C125.4 14.4854 124.888 13.8085 122.029 13.8085V12.9612H130.86C135.254 12.9612 137.686 15.2056 137.686 18.2123C137.686 21.1343 135.254 23.4204 130.86 23.4204H128.428V25.4944C128.428 29.7297 128.94 30.4495 131.799 30.4495ZM130.86 14.4854H128.428V21.8537H130.86C133.25 21.8537 134.359 20.2024 134.359 18.2123C134.359 16.18 133.25 14.4854 130.86 14.4854ZM166.995 27.3161L166.782 28.0784C166.398 29.4755 165.928 29.984 162.899 29.984H162.301C160.084 29.984 159.699 29.4755 159.699 26.4696V24.5216C163.027 24.5216 163.284 24.8179 163.284 27.0202H164.094V20.7101H163.283C163.283 22.912 163.027 23.2083 159.699 23.2083V18.4661H162.045C165.075 18.4661 165.544 18.9745 165.928 20.3716L166.142 21.1757H166.824L166.526 17.1957H153.982V17.9998C156.371 17.9998 156.756 18.5078 156.756 21.5145V26.9348C156.756 29.685 156.429 30.3777 154.546 30.4766C152.756 30.2051 151.527 29.236 149.845 27.4004L147.882 25.2835C150.528 24.8171 151.936 23.1662 151.936 21.3028C151.936 18.9745 149.93 17.1961 146.176 17.1961H138.668V17.9998C141.056 17.9998 141.441 18.5078 141.441 21.5145V26.9348C141.441 29.9411 141.057 30.4916 138.668 30.4916V31.2961H147.158V30.4913C144.769 30.4913 144.385 29.9411 144.385 26.9348V25.411H145.11L149.845 31.2964H167.379L167.636 27.3165L166.995 27.3161ZM144.384 24.0977V18.4665H146.133C148.053 18.4665 148.907 19.779 148.907 21.3035C148.907 22.7856 148.053 24.0977 146.133 24.0977H144.384ZM175.655 31.8466C173.949 31.8466 172.455 30.9576 171.815 30.4067C171.602 30.6188 171.218 31.2539 171.133 31.8466H170.322V26.0036H171.176C171.517 28.7978 173.479 30.4495 175.997 30.4495C177.362 30.4495 178.471 29.6876 178.471 28.4173C178.471 27.3165 177.49 26.4692 175.741 25.6652L173.309 24.5219C171.602 23.7168 170.322 22.3193 170.322 20.4566C170.322 18.4244 172.242 16.6884 174.888 16.6884C176.296 16.6884 177.489 17.1965 178.215 17.7892C178.428 17.62 178.642 17.1536 178.77 16.6452H179.581V21.6428H178.685C178.385 19.6522 177.277 18.0009 175.016 18.0009C173.821 18.0009 172.711 18.6786 172.711 19.7376C172.711 20.8383 173.608 21.4307 175.656 22.3625L178.001 23.5058C180.05 24.4794 180.86 26.0469 180.86 27.3169C180.86 29.9843 178.513 31.8466 175.655 31.8466ZM188.795 31.8466C187.088 31.8466 185.595 30.9576 184.955 30.4067C184.742 30.6188 184.358 31.2539 184.273 31.8466H183.463V26.0036H184.315C184.656 28.7978 186.619 30.4495 189.136 30.4495C190.501 30.4495 191.611 29.6876 191.611 28.4173C191.611 27.3165 190.63 26.4692 188.88 25.6652L186.448 24.5219C184.742 23.7168 183.462 22.3193 183.462 20.4566C183.462 18.4244 185.382 16.6884 188.027 16.6884C189.435 16.6884 190.629 17.1965 191.355 17.7892C191.568 17.62 191.781 17.1536 191.909 16.6452H192.72V21.6428H191.824C191.525 19.6522 190.416 18.0009 188.155 18.0009C186.961 18.0009 185.851 18.6786 185.851 19.7376C185.851 20.8383 186.747 21.4307 188.795 22.3625L191.141 23.5058C193.189 24.4794 193.999 26.0469 193.999 27.3169C193.999 29.9843 191.653 31.8466 188.795 31.8466Z" fill="white" fill-opacity="0.2"/>
<path d="M3.12825 21.8432C3.12825 29.2608 7.47165 35.6705 13.7695 38.7083L4.76285 14.2169C3.68317 16.6166 3.12615 19.2151 3.12825 21.8432ZM34.7548 20.8977C34.7548 18.5819 33.9167 16.978 33.1975 15.7294C32.2404 14.1861 31.3435 12.8788 31.3435 11.3355C31.3435 9.61269 32.6598 8.00913 34.5138 8.00913C34.5975 8.00913 34.6767 8.01966 34.7586 8.02417C31.3996 4.96974 26.9243 3.1052 22.0088 3.1052C15.4128 3.1052 9.60982 6.46386 6.23377 11.5517C6.67709 11.5645 7.09426 11.5739 7.44892 11.5739C9.42378 11.5739 12.4808 11.3358 12.4808 11.3358C13.4985 11.2764 13.6183 12.76 12.602 12.8796C12.602 12.8796 11.579 12.9992 10.4408 13.0582L17.3164 33.3558L21.448 21.0568L18.5065 13.0578C17.4899 12.9984 16.5268 12.8788 16.5268 12.8788C15.509 12.8198 15.6287 11.2757 16.6457 11.3355C16.6457 11.3355 19.7641 11.5731 21.6193 11.5731C23.5934 11.5731 26.6511 11.3355 26.6511 11.3355C27.6692 11.2757 27.789 12.7592 26.772 12.8788C26.772 12.8788 25.7471 12.9984 24.6111 13.0575L31.4341 33.2016L33.3172 26.9551C34.1334 24.3636 34.7548 22.5021 34.7548 20.8977ZM22.3399 23.4825L16.6753 39.82C18.4072 40.3263 20.2033 40.5834 22.0088 40.5834C24.1442 40.5841 26.2643 40.2249 28.2785 39.521C28.2263 39.4391 28.1814 39.3528 28.1444 39.263L22.3399 23.4825ZM38.5757 12.8529C38.6568 13.4497 38.703 14.0902 38.703 14.7799C38.703 16.6813 38.3449 18.8188 37.2669 21.4916L31.5 38.0412C37.1131 34.7923 40.8885 28.7568 40.8885 21.8439C40.8889 18.5857 40.0504 15.5222 38.5757 12.8529ZM22.0088 0C9.87354 0 0 9.79884 0 21.8432C0 33.8894 9.87354 43.6879 22.0088 43.6879C34.144 43.6879 44.0187 33.8894 44.0187 21.8432C44.0187 9.79884 34.144 0 22.0088 0ZM22.0088 42.6864C10.4302 42.6864 1.00903 33.3362 1.00903 21.8432C1.00903 10.3513 10.4298 1.00147 22.0088 1.00147C33.5874 1.00147 43.0078 10.3513 43.0078 21.8432C43.0078 33.3362 33.5874 42.6864 22.0088 42.6864Z" fill="white" fill-opacity="0.2"/>
</svg>

<svg width="194" height="44" fill="none" xmlns="http://www.w3.org/2000/svg"><path d="M112.516 17.196h-7.637V18c2.389 0 2.773.508 2.773 3.515v5.42c0 3.007-.384 3.557-2.773 3.557-1.834-.254-3.071-1.228-4.778-3.091l-1.962-2.117c2.644-.466 4.052-2.117 4.052-3.98 0-2.33-2.004-4.107-5.759-4.107h-7.508V18c2.388 0 2.772.508 2.772 3.515v5.42c0 3.007-.384 3.557-2.772 3.557v.804h8.489v-.804c-2.389 0-2.772-.55-2.772-3.557v-1.524h.724l4.736 5.885h12.415c6.101 0 8.746-3.217 8.746-7.071 0-3.853-2.645-7.029-8.746-7.029Zm-17.875 6.902v-5.631h1.749c1.92 0 2.773 1.312 2.773 2.837 0 1.482-.854 2.794-2.773 2.794h-1.75Zm18.003 5.886h-.299c-1.535 0-1.748-.381-1.748-2.329v-9.189h2.047c4.437 0 5.247 3.218 5.247 5.717 0 2.583-.81 5.801-5.247 5.801Zm-47.482-4.319 2.943-8.639c.854-2.498.47-3.217-2.26-3.217v-.847h8.02v.847c-2.688 0-3.327.635-4.394 3.726l-4.864 14.481h-.554L59.7 18.762l-4.438 13.254h-.554l-4.735-14.481c-1.024-3.091-1.707-3.726-4.181-3.726v-.847h9.47v.847c-2.516 0-3.2.593-2.303 3.217l2.858 8.639 4.31-12.703h.81l4.224 12.703Zm14.504 6.182c-4.693 0-8.532-3.43-8.532-7.623 0-4.149 3.84-7.58 8.532-7.58 4.693 0 8.532 3.431 8.532 7.58 0 4.193-3.839 7.623-8.532 7.623Zm0-13.889c-3.924 0-5.29 3.514-5.29 6.267 0 2.795 1.365 6.267 5.29 6.267 3.968 0 5.333-3.472 5.333-6.267 0-2.753-1.365-6.267-5.333-6.267Zm52.133 12.492v.846h-9.77v-.846c2.859 0 3.371-.72 3.371-4.955V18.72c0-4.236-.512-4.912-3.371-4.912v-.848h8.831c4.394 0 6.826 2.245 6.826 5.251 0 2.922-2.432 5.208-6.826 5.208h-2.432v2.074c0 4.236.512 4.956 3.371 4.956Zm-.939-15.965h-2.432v7.369h2.432c2.39 0 3.499-1.652 3.499-3.642 0-2.032-1.109-3.727-3.499-3.727Zm36.135 12.831-.213.762c-.384 1.398-.854 1.906-3.883 1.906h-.598c-2.217 0-2.602-.509-2.602-3.514v-1.948c3.328 0 3.585.296 3.585 2.498h.81v-6.31h-.811c0 2.202-.256 2.498-3.584 2.498v-4.742h2.346c3.03 0 3.499.508 3.883 1.906l.214.804h.682l-.298-3.98h-12.544V18c2.389 0 2.774.508 2.774 3.515v5.42c0 2.75-.327 3.443-2.21 3.542-1.79-.272-3.019-1.241-4.701-3.077l-1.963-2.116c2.646-.467 4.054-2.118 4.054-3.981 0-2.329-2.006-4.107-5.76-4.107h-7.508V18c2.388 0 2.773.508 2.773 3.515v5.42c0 3.006-.384 3.557-2.773 3.557v.804h8.49v-.805c-2.389 0-2.773-.55-2.773-3.556V25.41h.725l4.735 5.885h17.534l.257-3.98h-.641Zm-22.611-3.218v-5.631h1.749c1.92 0 2.774 1.312 2.774 2.837 0 1.482-.854 2.794-2.774 2.794h-1.749Zm31.271 7.749c-1.706 0-3.2-.89-3.84-1.44-.213.212-.597.847-.682 1.44h-.811v-5.843h.854c.341 2.794 2.303 4.445 4.821 4.445 1.365 0 2.474-.761 2.474-2.032 0-1.1-.981-1.948-2.73-2.752l-2.432-1.143c-1.707-.805-2.987-2.203-2.987-4.065 0-2.033 1.92-3.769 4.566-3.769 1.408 0 2.601.509 3.327 1.101.213-.169.427-.635.555-1.144h.811v4.998h-.896c-.3-1.99-1.408-3.642-3.669-3.642-1.195 0-2.305.678-2.305 1.737 0 1.1.897 1.693 2.945 2.625l2.345 1.143c2.049.973 2.859 2.54 2.859 3.81 0 2.668-2.347 4.53-5.205 4.53Zm13.14 0c-1.707 0-3.2-.89-3.84-1.44-.213.212-.597.847-.682 1.44h-.81v-5.843h.852c.341 2.794 2.304 4.445 4.821 4.445 1.365 0 2.475-.761 2.475-2.032 0-1.1-.981-1.948-2.731-2.752l-2.432-1.143c-1.706-.805-2.986-2.203-2.986-4.065 0-2.033 1.92-3.769 4.565-3.769 1.408 0 2.602.509 3.328 1.101.213-.169.426-.635.554-1.144h.811v4.998h-.896c-.299-1.99-1.408-3.642-3.669-3.642-1.194 0-2.304.678-2.304 1.737 0 1.1.896 1.693 2.944 2.625l2.346 1.143c2.048.973 2.858 2.54 2.858 3.81 0 2.668-2.346 4.53-5.204 4.53ZM3.128 21.843c0 7.418 4.344 13.827 10.642 16.865L4.763 14.217a18.548 18.548 0 0 0-1.635 7.626Zm31.627-.945c0-2.316-.838-3.92-1.558-5.169-.957-1.543-1.854-2.85-1.854-4.393 0-1.723 1.317-3.327 3.17-3.327.084 0 .164.01.246.015a18.889 18.889 0 0 0-12.75-4.919 18.894 18.894 0 0 0-15.775 8.447c.443.013.86.022 1.215.022 1.975 0 5.032-.238 5.032-.238 1.018-.06 1.137 1.424.121 1.544 0 0-1.023.12-2.161.178l6.875 20.298 4.132-12.3-2.942-7.998c-1.016-.06-1.98-.18-1.98-.18-1.017-.058-.897-1.602.12-1.543 0 0 3.118.238 4.973.238 1.974 0 5.032-.238 5.032-.238 1.018-.06 1.138 1.424.121 1.544 0 0-1.025.12-2.16.178l6.822 20.145 1.883-6.247c.816-2.591 1.438-4.453 1.438-6.057ZM22.34 23.483 16.675 39.82a19.009 19.009 0 0 0 11.604-.299 1.648 1.648 0 0 1-.135-.258l-5.804-15.78Zm16.236-10.63c.08.597.127 1.237.127 1.927 0 1.901-.358 4.039-1.436 6.712L31.5 38.042c5.613-3.25 9.389-9.285 9.389-16.198a18.54 18.54 0 0 0-2.313-8.991ZM22.009 0C9.874 0 0 9.799 0 21.843 0 33.89 9.874 43.688 22.009 43.688s22.01-9.799 22.01-21.845C44.019 9.8 34.144 0 22.009 0Zm0 42.686c-11.579 0-21-9.35-21-20.843 0-11.492 9.42-20.842 21-20.842 11.578 0 20.999 9.35 20.999 20.842 0 11.493-9.42 20.843-21 20.843Z" fill="#fff" fill-opacity=".2"/></svg>
